X:1
T:Title
%%score { ( 1 3 4 ) | ( 2 5 ) }
L:1/8
M:6/8
K:Ab
V:1 treble nm="Grand Piano"
V:3 treble 
V:4 treble 
V:2 bass 
V:5 bass 
V:1
 z3 z2[Q:1/4=68] C | .F3 .A3 | .A3 .G3 | .G3 .F3[K:bass] | C3 z3 | .F3 .A3 | .A3 .G3 | %7
 .[EGB]3 .[FBd]3 | [=EGc]3- [EGc]2 B/c/ | .d3 .c3 | .d3 .c3 | z2 F/G/ A2 G/F/ | [=EGc]6 | %13
 .[FA]3 z3 | .[C=EG]3 .A3 | z2 A GF=E |[M:5/8] F-F- F3 |] %17
V:2
 z6 | F, A,2 F, A,2 | F, A,2 C, =E,2 | C, =E,2 B,, D,2 | C,=E,G, C2 C | F, A,2 F, A,2 | %6
 F, A,2 .E,2[K:treble] G/A/ | .E,2[K:treble] B/c/[K:bass] .B,,2[K:treble] c/B/ | C,=E,G, C3 | %9
 B,, [D,F,]2 F, [A,CF]2 | B,, [D,F,]2 F, [A,CF]2 | B,, D,2 .[F,A,CF]3 | C,2 G, z2[K:treble] c | %13
 F,A,B,, .[D,F,]2[K:treble] B | C, =E,2 .D,2[K:treble] A/G/ | D, F,2 C,=D,=E, | %16
[M:5/8] F,2 C, F,,2 |] %17
V:3
 x6 | z2 G z2 G/F/ | z2 G/F/ z2 =E/F/ | z2 F/=E/ z2[K:bass] _E/D/ | x6 | z2 G z2 G/F/ | %6
 z2 G/F/ z B,2 | z B,2 z [F,B,]2 | x6 | z B-[Bc]/B/ z2 B/c/ | z B-[Bc]/B/ z2 G/A/ | .[DFB]3 z3 | %12
 x6 | z Cc .[DFB]3 | z2 B z A,2 | .[DF]3 z3 |[M:5/8] x5 |] %17
V:4
 x6 | z C2 z C2 | z C2 z B,2 | z G,2 z[K:bass] F,2 | x6 | z C2 z C2 | z C2 z3 | x6 | x6 | %9
 z F2 z A2 | z F2 z A2 | z F,2 z3 | x6 | x6 | z G,2 z3 | z A,2 z3 |[M:5/8] x5 |] %17
V:5
 x6 | x6 | x6 | x6 | x6 | x6 | z3 z G,2[K:treble] | z G,2[K:treble][K:bass] z D,2[K:treble] | x6 | %9
 x6 | x6 | x6 | z3 B,3[K:treble] | x5[K:treble] x | z3 z F,2[K:treble] | x6 |[M:5/8] x5 |] %17

